icons/gltf.svg

<!--
  - The MIT License (MIT)
  -
  - Copyright (c) 2015-2024 Elior "Mallowigi" Boukhobza
  -
  - Permission is hereby granted, free of charge, to any person obtaining a copy
  - of this software and associated documentation files (the "Software"), to deal
  - in the Software without restriction, including without limitation the rights
  - to use, copy, modify, merge, publish, distribute, sublicense, and/or sell
  - copies of the Software, and to permit persons to whom the Software is
  - furnished to do so, subject to the following conditions:
  -
  - The above copyright notice and this permission notice shall be included in all
  - copies or substantial portions of the Software.
  -
  - THE SOFTWARE IS PROVIDED "AS IS", WITHOUT WARRANTY OF ANY KIND, EXPRESS OR
  - IMPLIED, INCLUDING BUT NOT LIMITED TO THE WARRANTIES OF MERCHANTABILITY,
  - FITNESS FOR A PARTICULAR PURPOSE AND NONINFRINGEMENT. IN NO EVENT SHALL THE
  - AUTHORS OR COPYRIGHT HOLDERS BE LIABLE FOR ANY CLAIM, DAMAGES OR OTHER
  - LIABILITY, WHETHER IN AN ACTION OF CONTRACT, TORT OR OTHERWISE, ARISING FROM,
  - OUT OF OR IN CONNECTION WITH THE SOFTWARE OR THE USE OR OTHER DEALINGS IN THE
  - SOFTWARE.
  -
  -->

<svg  version="1.1" xmlns="http://www.w3.org/2000/svg" viewBox="0 0 512 512" width="16px" height="16px">
  <path fill="#82bf3e" data-iconColor="glTF"
        d="M219.2308502,296.4603577c-5.6723022,12.4480591-16.3726501,19.8357239-28.5587311,22.7695618C114.875,336.4385071,98.0000076,222.9385071,152.3344574,193.4888611c37.8236237-15.7138519,60.1875458,1.8578033,66.92836,15.1087341v-17.7659149h20.2284851C240.25,329.8404236,264.1875,384.5635071,120.6239319,383.8923645C48.6939316,359.0003357-0.0077864,311.0630188,0.0000009,256.0236206c0.01103-80.6335449,104.5548325-145.9825134,233.5040131-145.9598083c84.1946564,0.0142746,157.8325043,29.3836288,198.8993988,71.1811752c-37.625824-24.9452362-94.2076416-39.3181305-157.3140564-39.3181305c-113.2810822,0-205.1138153,51.1013031-205.1138153,114.1389313c0,39.5212097,36.2270355,74.3901367,91.0756378,94.8768616C204.0147858,364.5540161,222.0099792,338.7090454,219.2308502,296.4603577z M431.9459229,331.2986145c-57.0018616,35.7280884-133.0062256,43.2771301-197.2453766,36.6888123c-12.2341461,11.1044617-34.0874329,23.7798462-63.8487244,28.7561951C276.9950256,413.9198303,374.1666565,387.5635071,431.9459229,331.2986145z M363.8236389,216.9390869h38.2344666v-26.1074066H295.1147156v26.1074066h38.2338257v102.4365845l30.4750977,0.0732117V216.9390869z M448.3952637,267.1377563h55.6766052v-26.1067352h-55.6766052v-24.0919495H512v-26.1073914h-94.0811157v128.6903839l30.4763794,0.0731812V267.1377563z M257.2202454,319.2292786l21.2277527,0.0732117V158.7506104h-21.2277527V319.2292786z M218.2649994,253.9190369c0-37.5001984-31.5725861-61.0650635-56.6942444-42.3149719s-25.1216583,65.8798523,0,84.6299438S218.2649994,291.4192505,218.2649994,253.9190369"/>
</svg>

<svg xmlns="http://www.w3.org/2000/svg" viewBox="0 0 512 512"><path fill="#82bf3e" d="M219.23 296.46c-5.671 12.448-16.372 19.836-28.558 22.77-75.797 17.209-92.672-96.291-38.338-125.741 37.824-15.714 60.188 1.858 66.929 15.109v-17.766h20.228c.759 139.008 24.696 193.732-118.867 193.06C48.694 359-.008 311.063 0 256.024c.011-80.634 104.555-145.983 233.504-145.96 84.195.014 157.833 29.383 198.9 71.181-37.626-24.945-94.208-39.318-157.315-39.318-113.28 0-205.113 51.101-205.113 114.139 0 39.521 36.227 74.39 91.075 94.877 42.964 13.611 60.959-12.234 58.18-54.483m212.716 34.84c-57.002 35.728-133.006 43.277-197.245 36.688-12.235 11.105-34.088 23.78-63.85 28.757 106.144 17.176 203.316-9.18 261.095-65.445m-68.122-114.36h38.234v-26.107H295.115v26.107h38.234v102.437l30.475.073zm84.571 50.199h55.677V241.03h-55.677v-24.092H512v-26.107h-94.081v128.69l30.476.073zm-191.176 52.09 21.228.073V158.751H257.22zm-38.955-65.31c0-37.5-31.573-61.065-56.694-42.315s-25.122 65.88 0 84.63 56.694-4.815 56.694-42.315" data-iconColor="glTF"/></svg>
